X:579
T:Abbots Bromley Horn Dance
R:jig
M:6/8
L:1/8
Q:1/8=100
K:Em
e|B2 e G2 e|B2 e E2 G|FGA GAB|AGF G2 e|
B2 e G2 e|B2 e E2 G|FGA GAB|AGF E2||
e|c2 c  cde|A2 A ABc|FGA GFE|DEF B,2 g|
e2 e efg|c2 c cde|dcB AGF|E3-E2||
|z|BcB c3|BcB e3|BcB AGF|E3 E2 z|
BcB c3|BcB e3|BcB AGF|E3 E2 z||
